svg/food/wine_fill.svg

<?xml version="1.0" encoding="UTF-8"?>
<svg width="24px" height="24px" viewBox="0 0 24 24" version="1.1" xmlns="http://www.w3.org/2000/svg" xmlns:xlink="http://www.w3.org/1999/xlink">
    <title>wine_fill</title>
    <g id="Icon" stroke="none" stroke-width="1" fill="none" fill-rule="evenodd">
        <g id="Food" transform="translate(-48.000000, -145.000000)">
            <g id="wine_fill" transform="translate(48.000000, 145.000000)">
                <path d="M24,0 L24,24 L0,24 L0,0 L24,0 Z M12.5935,23.2578 L12.5819,23.2595 L12.5109,23.295 L12.4919,23.2987 L12.4767,23.295 L12.4057,23.2595 C12.3958,23.2564 12.387,23.259 12.3821,23.2649 L12.378,23.2758 L12.3609,23.7031 L12.3659,23.7235 L12.3769,23.7357 L12.4805,23.8097 L12.4953,23.8136 L12.5071,23.8097 L12.6107,23.7357 L12.6233,23.7197 L12.6267,23.7031 L12.6096,23.2758 C12.6076,23.2657 12.601,23.2593 12.5935,23.2578 Z M12.8584,23.1453 L12.8445,23.1473 L12.6598,23.2397 L12.6499,23.2499 L12.6472,23.2611 L12.6651,23.6906 L12.6699,23.7034 L12.6784,23.7105 L12.8793,23.8032 C12.8914,23.8069 12.9022,23.803 12.9078,23.7952 L12.9118,23.7812 L12.8777,23.1665 C12.8753,23.1546 12.8674,23.147 12.8584,23.1453 Z M12.143,23.1473 C12.1332,23.1424 12.1222,23.1453 12.1156,23.1526 L12.1099,23.1665 L12.0758,23.7812 C12.0751,23.7927 12.0828,23.8019 12.0926,23.8046 L12.1083,23.8032 L12.3092,23.7105 L12.3186,23.7024 L12.3225,23.6906 L12.3404,23.2611 L12.3372,23.2485 L12.3278,23.2397 L12.143,23.1473 Z" id="MingCute" fill-rule="nonzero"></path>
                <path d="M12.5799,2 C13.567995,2 14.3995062,2.7195813 14.5542643,3.68028578 L14.573,3.83391 L14.9564,8.43578 L16.6641,9.57422 C17.44306,10.093508 17.9316787,10.944097 17.9933658,11.8707583 L18,12.0704 L18,19 C18,20.597725 16.7511226,21.903664 15.1762773,21.9949075 L15,22 L9,22 C7.40232321,22 6.09633941,20.7511226 6.00509271,19.1762773 L6,19 L6,12.0704 C6,11.1341733 6.436688,10.2557884 7.17347378,9.69047392 L7.3359,9.57422 L9.04355,8.43578 L9.42704,3.83391 C9.509101,2.849159 10.2952925,2.08033112 11.2654622,2.00591022 L11.4201,2 L12.5799,2 Z M16,14 L12,14 C11.4477,14 11,14.4477 11,15 C11,15.5523 11.4477,16 12,16 L16,16 C16.5523,16 17,15.5523 17,15 C17,14.4477 16.5523,14 16,14 Z" id="形状" fill="#09244B"></path>
            </g>
        </g>
    </g>
</svg>

<svg xmlns="http://www.w3.org/2000/svg" width="24" height="24"><g fill="none" fill-rule="evenodd"><path d="M24 0v24H0V0h24ZM12.594 23.258l-.012.002-.071.035-.02.004-.014-.004-.071-.036c-.01-.003-.019 0-.024.006l-.004.01-.017.428.005.02.01.013.104.074.015.004.012-.004.104-.074.012-.016.004-.017-.017-.427c-.002-.01-.009-.017-.016-.018Zm.264-.113-.014.002-.184.093-.01.01-.003.011.018.43.005.012.008.008.201.092c.012.004.023 0 .029-.008l.004-.014-.034-.614c-.003-.012-.01-.02-.02-.022Zm-.715.002a.023.023 0 0 0-.027.006l-.006.014-.034.614c0 .012.007.02.017.024l.015-.002.201-.093.01-.008.003-.011.018-.43-.003-.012-.01-.01-.184-.092Z"/><path fill="#09244B" d="M12.58 2a2 2 0 0 1 1.974 1.68l.019.154.383 4.602 1.708 1.138a3 3 0 0 1 1.33 2.297l.006.2V19a3 3 0 0 1-2.824 2.995L15 22H9a3 3 0 0 1-2.995-2.824L6 19v-6.93a3 3 0 0 1 1.173-2.38l.163-.116 1.708-1.138.383-4.602a2 2 0 0 1 1.838-1.828L11.42 2h1.16ZM16 14h-4a1 1 0 1 0 0 2h4a1 1 0 1 0 0-2Z"/></g></svg>
